X:510
T: Leitrim Jig
T: Leitrim Fancy
M: 6/8
L: 1/8
R: jig
K: Edor
GBG FAF|E2B BAB|GBG FAF|D2A AFD|
GBG FAF|E2B BAB|GAB dBG|ABG FED :|
GAB dBd|edB dBA|GAB dBG|ABG FED|
GAB dBd|edB def|gfe dBG|ABG FED :|
